src/images/call.svg

<svg width="47" height="48" viewBox="0 0 47 48" fill="none" xmlns="http://www.w3.org/2000/svg">
<path d="M32.113 12.1029L25.2073 5.19716V22.5048H42.5149L35.6092 15.5991L46.7355 4.47271L43.2394 0.976562L32.113 12.1029Z" fill="white"/>
<path d="M33.6679 28.546C33.1927 28.1141 32.5684 27.8838 31.9267 27.9037C31.285 27.9235 30.6761 28.1919 30.2286 28.6523L24.3143 34.7372C22.8901 34.4652 20.0269 33.5726 17.0797 30.6328C14.1325 27.6831 13.2399 24.8125 12.9753 23.3982L19.0552 17.479C19.5162 17.0317 19.785 16.4227 19.8048 15.7808C19.8247 15.1389 19.594 14.5145 19.1616 14.0397L10.0256 3.99382C9.59301 3.5175 8.99178 3.22858 8.3496 3.18842C7.70742 3.14825 7.07488 3.36001 6.58631 3.77871L1.22094 8.38007C0.792752 8.80885 0.536744 9.37981 0.501434 9.98474C0.464347 10.6029 -0.242795 25.2452 11.111 36.6039C21.016 46.5064 33.4255 47.2308 36.8401 47.2308C37.342 47.2308 37.6461 47.216 37.7277 47.211C38.3324 47.1777 38.9033 46.9213 39.3299 46.4915L43.9313 41.1237C44.3497 40.6352 44.5615 40.003 44.5218 39.361C44.4821 38.719 44.1941 38.1177 43.7187 37.6844L33.6679 28.546Z" fill="white"/>
</svg>

<svg width="47" height="48" fill="none" xmlns="http://www.w3.org/2000/svg"><path d="M32.113 12.103l-6.906-6.906v17.308h17.308l-6.906-6.906L46.736 4.473 43.239.977 32.113 12.103z" fill="#fff"/><path d="M33.668 28.546a2.475 2.475 0 0 0-3.44.106l-5.914 6.085c-1.424-.272-4.287-1.164-7.234-4.104-2.947-2.95-3.84-5.82-4.105-7.235l6.08-5.919a2.472 2.472 0 0 0 .107-3.44L10.026 3.995a2.473 2.473 0 0 0-3.44-.215L1.221 8.38c-.428.429-.684 1-.72 1.605-.037.618-.744 15.26 10.61 26.619 9.905 9.902 22.314 10.627 25.73 10.627.501 0 .805-.015.887-.02a2.447 2.447 0 0 0 1.602-.72l4.601-5.367a2.475 2.475 0 0 0-.212-3.44l-10.051-9.138z" fill="#fff"/></svg>
